public/avatar/body/39.svg

<svg xmlns:xlink="http://www.w3.org/1999/xlink" height="82" width="84.85" xmlns="http://www.w3.org/2000/svg"><g transform="translate(37.4 42.25)"><use height="38" transform="translate(-11.95 -17.45)" width="32.05" xlink:href="#a"/><use height="21.6" transform="translate(-12.25 -17.95)" width="32.65" xlink:href="#b"/><use height="17.7" transform="translate(-12.4 3.3)" width="33.1" xlink:href="#c"/><use height="7.35" transform="translate(.95 9.45)" width="5.3" xlink:href="#d"/><use height="4" transform="translate(5.1 8.15)" width="4" xlink:href="#e"/><use height="4" transform="translate(7.95 7)" width="4" xlink:href="#e"/><use height="4" transform="translate(-4.25 6.85)" width="4" xlink:href="#e"/><use height="4" transform="translate(-1.6 7.9)" width="4" xlink:href="#e"/></g><defs><use height="38" width="32.05" xlink:href="#f" id="a"/><use height="21.6" width="32.65" xlink:href="#g" id="b"/><use height="7.35" width="5.3" xlink:href="#h" id="d"/><use height="4" width="4" xlink:href="#i" id="e"/><g id="c"><path d="M19.95 3.85q.3 2.1.15 4.2l-.45 2.55q-.6 2.3-2.15 3.95l-3.65 3.15q-1.9 1.3-4 2.05l-4.35.75-4.9-.25q-2.25-.4-4.25-1.25-2.05-.9-3.75-2.5-1.6-1.6-2.7-3.6-1-1.9-1.45-4.05-.45-2.4-.3-4.85l2.4 3.6q1.05 1.45 3.25 2.65Q-4 11.4-2.35 13.3-.7 15.15.5 17.25q1.2 2.1 3.35 3.1 2-1.05 4.15-4.25 2.1-3.25 3.45-3.75l2.85-1.5q1.55-.95 3.05-3l2.6-4" fill="#f39" fill-rule="evenodd" transform="translate(12.4 -3.3)"/><path d="m-11.85 4 2.4 3.6q1.05 1.45 3.25 2.65Q-4 11.4-2.35 13.3-.7 15.15.5 17.25q1.2 2.1 3.35 3.1 2-1.05 4.15-4.25 2.1-3.25 3.45-3.75l2.85-1.5q1.55-.95 3.05-3l2.6-4" fill="none" stroke="#c00" stroke-linecap="round" stroke-linejoin="round" transform="translate(12.4 -3.3)"/><path d="M19.95 3.85q.3 2.1.15 4.2l-.45 2.55q-.6 2.3-2.15 3.95l-3.65 3.15q-1.9 1.3-4 2.05l-4.35.75-4.9-.25q-2.25-.4-4.25-1.25-2.05-.9-3.75-2.5-1.6-1.6-2.7-3.6-1-1.9-1.45-4.05-.45-2.4-.3-4.85Z" fill="none" stroke="#000" stroke-linecap="round" stroke-linejoin="round" transform="translate(12.4 -3.3)"/><path d="M-11.65 4Q-3.5 9.15 4.2 10.95q7.95-2 16-7.15" fill="none" stroke="#cca300" stroke-linecap="round" stroke-linejoin="round" transform="translate(12.4 -3.3)"/></g><g id="h"><path d="m.95 4.85.1.1q.4.4.4.95 0 .55-.4.95-.4.4-.95.4-.55 0-.95-.4-.4-.4-.4-.95 0-.55.4-.95l.2-.15q.3-.25.75-.25.5 0 .85.3" fill="#fc0" fill-rule="evenodd" transform="translate(2.65 -.4)"/><path d="m.95 4.85.1.1q.4.4.4.95 0 .55-.4.95-.4.4-.95.4-.55 0-.95-.4-.4-.4-.4-.95 0-.55.4-.95l.2-.15q.3-.25.75-.25.5 0 .85.3Z" fill="none" stroke="#cca300" stroke-linecap="round" stroke-linejoin="round" transform="translate(2.65 -.4)"/><path d="M-.65 5.1q-.5-.15-.85-.55-.65-.6-.65-1.5t.65-1.5Q-.85.9 0 .9q.9 0 1.55.65.6.6.6 1.5t-.6 1.5l-.95.6-.65-.25-.6.2M.3 3.05q.25.35.6.1 1.25-.8-.15-1.4-1.2.35-.45 1.3" fill="#fc0" fill-rule="evenodd" transform="translate(2.65 -.4)"/><path d="M.3 3.05q-.75-.95.45-1.3 1.4.6.15 1.4-.35.25-.6-.1" fill="#fff" fill-rule="evenodd" transform="translate(2.65 -.4)"/><path d="m.6 5.15.95-.6q.6-.6.6-1.5t-.6-1.5Q.9.9 0 .9q-.85 0-1.5.65-.65.6-.65 1.5t.65 1.5q.35.4.85.55" fill="none" stroke="#cca300" stroke-linecap="round" stroke-linejoin="round" transform="translate(2.65 -.4)"/></g><g id="i"><path d="M.8 1.55Q.2.8 1.15.5q1.15.5.1 1.15Q1 1.8.8 1.55" fill="#ffcc4c" fill-rule="evenodd" transform="translate(.5 .5)"/><path d="m2.55 2.55-.25.2-.8.25Q.9 3 .45 2.55 0 2.1 0 1.5 0 .9.45.45.9 0 1.5 0l.8.25.25.2Q3 .9 3 1.5q0 .6-.45 1.05m-1.75-1q.2.25.45.1Q2.3 1 1.15.5.2.8.8 1.55" fill="#cca33d" fill-rule="evenodd" transform="translate(.5 .5)"/><path d="m2.55 2.55-.25.2-.8.25Q.9 3 .45 2.55 0 2.1 0 1.5 0 .9.45.45.9 0 1.5 0l.8.25.25.2Q3 .9 3 1.5q0 .6-.45 1.05Z" fill="none" stroke="#997a2e" stroke-linecap="round" stroke-linejoin="round" transform="translate(.5 .5)"/></g><path d="M27.35 7.4q2.15 4.15 3.55 8.75 1.45 4.7 1.15 9.5-.35 4.95-4.2 8.1-3.8 3.2-8.75 4.05l-2.6.2q-3.6 0-7.05-1.15-4.65-1.6-7.1-5.5Q-.2 27.4.05 23q.2-4.4 2-9.3Q3.85 8.75 7 5.05 10.1 1.3 14.7.1l1.8-.1q1.9.05 3.7.8 4.75 2.05 7.15 6.6" fill="#f1cea5" fill-rule="evenodd" transform="translate(-.05)" id="f"/><path d="M31.9 20.6q-.3-2.25-1-4.45-1.4-4.6-3.55-8.75-2.4-4.55-7.15-6.6-2.65-1.1-5.5-.7Q10.1 1.3 7 5.05q-3.15 3.7-4.95 8.65Q.7 17.3.25 20.6" fill="none" stroke="#000" stroke-linecap="round" stroke-linejoin="round" transform="translate(.25 .5)" id="g"/></defs></svg>

<?xml version="1.0" encoding="UTF-8" standalone="no"?>
<svg xmlns:xlink="http://www.w3.org/1999/xlink" height="82.0px" width="84.85px" xmlns="http://www.w3.org/2000/svg">
  <g transform="matrix(1.0, 0.0, 0.0, 1.0, 37.4, 42.25)">
    <use height="38.0" transform="matrix(1.0, 0.0, 0.0, 1.0, -11.95, -17.45)" width="32.05" xlink:href="#sprite0"/>
    <use height="21.6" transform="matrix(1.0, 0.0, 0.0, 1.0, -12.25, -17.95)" width="32.65" xlink:href="#sprite1"/>
    <use height="17.7" transform="matrix(1.0, 0.0, 0.0, 1.0, -12.4, 3.3)" width="33.1" xlink:href="#shape2"/>
    <use height="7.35" transform="matrix(1.0, 0.0, 0.0, 1.0, 0.95, 9.45)" width="5.3" xlink:href="#sprite2"/>
    <use height="4.0" transform="matrix(1.0, 0.0, 0.0, 1.0, 5.1, 8.15)" width="4.0" xlink:href="#sprite3"/>
    <use height="4.0" transform="matrix(1.0, 0.0, 0.0, 1.0, 7.95, 7.0)" width="4.0" xlink:href="#sprite3"/>
    <use height="4.0" transform="matrix(1.0, 0.0, 0.0, 1.0, -4.25, 6.85)" width="4.0" xlink:href="#sprite3"/>
    <use height="4.0" transform="matrix(1.0, 0.0, 0.0, 1.0, -1.6, 7.9)" width="4.0" xlink:href="#sprite3"/>
  </g>
  <defs>
    <g id="sprite0" transform="matrix(1.0, 0.0, 0.0, 1.0, -0.05, 0.0)">
      <use height="38.0" transform="matrix(1.0, 0.0, 0.0, 1.0, 0.05, 0.0)" width="32.05" xlink:href="#shape0"/>
    </g>
    <g id="shape0" transform="matrix(1.0, 0.0, 0.0, 1.0, -0.05, 0.0)">
      <path d="M27.35 7.4 Q29.5 11.55 30.9 16.15 32.35 20.85 32.05 25.65 31.7 30.6 27.85 33.75 24.05 36.95 19.1 37.8 L16.5 38.0 Q12.9 38.0 9.45 36.85 4.8 35.25 2.35 31.35 -0.2 27.4 0.05 23.0 0.25 18.6 2.05 13.7 3.85 8.75 7.0 5.05 10.1 1.3 14.7 0.1 L16.5 0.0 Q18.4 0.05 20.2 0.8 24.95 2.85 27.35 7.4" fill="#f1cea5" fill-rule="evenodd" stroke="none"/>
    </g>
    <g id="sprite1" transform="matrix(1.0, 0.0, 0.0, 1.0, 0.25, 0.5)">
      <use height="21.6" transform="matrix(1.0, 0.0, 0.0, 1.0, -0.25, -0.5)" width="32.65" xlink:href="#shape1"/>
    </g>
    <g id="shape1" transform="matrix(1.0, 0.0, 0.0, 1.0, 0.25, 0.5)">
      <path d="M31.9 20.6 Q31.6 18.35 30.9 16.15 29.5 11.55 27.35 7.4 24.95 2.85 20.2 0.8 17.55 -0.3 14.7 0.1 10.1 1.3 7.0 5.05 3.85 8.75 2.05 13.7 0.7 17.3 0.25 20.6" fill="none" stroke="#000000" stroke-linecap="round" stroke-linejoin="round" stroke-width="1.0"/>
    </g>
    <g id="shape2" transform="matrix(1.0, 0.0, 0.0, 1.0, 12.4, -3.3)">
      <path d="M19.95 3.85 Q20.25 5.95 20.1 8.05 L19.65 10.6 Q19.05 12.9 17.5 14.55 L13.85 17.7 Q11.95 19.0 9.85 19.75 L5.5 20.5 0.6 20.25 Q-1.65 19.85 -3.65 19.0 -5.7 18.1 -7.4 16.5 -9.0 14.9 -10.1 12.9 -11.1 11.0 -11.55 8.85 -12.0 6.45 -11.85 4.0 L-9.45 7.6 Q-8.4 9.05 -6.2 10.25 -4.0 11.4 -2.35 13.3 -0.7 15.15 0.5 17.25 1.7 19.35 3.85 20.35 5.85 19.3 8.0 16.1 10.1 12.85 11.45 12.35 L14.3 10.85 Q15.85 9.9 17.35 7.85 L19.95 3.85" fill="#ff3399" fill-rule="evenodd" stroke="none"/>
      <path d="M-11.85 4.0 L-9.45 7.6 Q-8.4 9.05 -6.2 10.25 -4.0 11.4 -2.35 13.3 -0.7 15.15 0.5 17.25 1.7 19.35 3.85 20.35 5.85 19.3 8.0 16.1 10.1 12.85 11.45 12.35 L14.3 10.85 Q15.85 9.9 17.35 7.85 L19.95 3.85" fill="none" stroke="#cc0000" stroke-linecap="round" stroke-linejoin="round" stroke-width="1.0"/>
      <path d="M19.95 3.85 Q20.25 5.95 20.1 8.05 L19.65 10.6 Q19.05 12.9 17.5 14.55 L13.85 17.7 Q11.95 19.0 9.85 19.75 L5.5 20.5 0.6 20.25 Q-1.65 19.85 -3.65 19.0 -5.7 18.1 -7.4 16.5 -9.0 14.9 -10.1 12.9 -11.1 11.0 -11.55 8.85 -12.0 6.45 -11.85 4.0 Z" fill="none" stroke="#000000" stroke-linecap="round" stroke-linejoin="round" stroke-width="1.0"/>
      <path d="M-11.65 4.0 Q-3.5 9.15 4.2 10.95 12.15 8.95 20.2 3.8" fill="none" stroke="#cca300" stroke-linecap="round" stroke-linejoin="round" stroke-width="1.0"/>
    </g>
    <g id="sprite2" transform="matrix(1.0, 0.0, 0.0, 1.0, 2.65, -0.4)">
      <use height="7.35" transform="matrix(1.0, 0.0, 0.0, 1.0, -2.65, 0.4)" width="5.3" xlink:href="#shape3"/>
    </g>
    <g id="shape3" transform="matrix(1.0, 0.0, 0.0, 1.0, 2.65, -0.4)">
      <path d="M0.95 4.85 L1.05 4.95 Q1.45 5.35 1.45 5.9 1.45 6.45 1.05 6.85 0.65 7.25 0.1 7.25 -0.45 7.25 -0.85 6.85 -1.25 6.45 -1.25 5.9 -1.25 5.35 -0.85 4.95 L-0.65 4.8 Q-0.35 4.55 0.1 4.55 0.6 4.55 0.95 4.85" fill="#ffcc00" fill-rule="evenodd" stroke="none"/>
      <path d="M0.95 4.85 L1.05 4.95 Q1.45 5.35 1.45 5.9 1.45 6.45 1.05 6.85 0.65 7.25 0.1 7.25 -0.45 7.25 -0.85 6.85 -1.25 6.45 -1.25 5.9 -1.25 5.35 -0.85 4.95 L-0.65 4.8 Q-0.35 4.55 0.1 4.55 0.6 4.55 0.95 4.85 Z" fill="none" stroke="#cca300" stroke-linecap="round" stroke-linejoin="round" stroke-width="1.0"/>
      <path d="M-0.65 5.1 Q-1.15 4.95 -1.5 4.55 -2.15 3.95 -2.15 3.05 -2.15 2.15 -1.5 1.55 -0.85 0.9 0.0 0.9 0.9 0.9 1.55 1.55 2.15 2.15 2.15 3.05 2.15 3.95 1.55 4.55 L0.6 5.15 -0.05 4.9 -0.65 5.1 M0.3 3.05 Q0.55 3.4 0.9 3.15 2.15 2.35 0.75 1.75 -0.45 2.1 0.3 3.05" fill="#ffcc00" fill-rule="evenodd" stroke="none"/>
      <path d="M0.3 3.05 Q-0.45 2.1 0.75 1.75 2.15 2.35 0.9 3.15 0.55 3.4 0.3 3.05" fill="#ffffff" fill-rule="evenodd" stroke="none"/>
      <path d="M0.6 5.15 L1.55 4.55 Q2.15 3.95 2.15 3.05 2.15 2.15 1.55 1.55 0.9 0.9 0.0 0.9 -0.85 0.9 -1.5 1.55 -2.15 2.15 -2.15 3.05 -2.15 3.95 -1.5 4.55 -1.15 4.95 -0.65 5.1" fill="none" stroke="#cca300" stroke-linecap="round" stroke-linejoin="round" stroke-width="1.0"/>
    </g>
    <g id="sprite3" transform="matrix(1.0, 0.0, 0.0, 1.0, 0.5, 0.5)">
      <use height="4.0" transform="matrix(1.0, 0.0, 0.0, 1.0, -0.5, -0.5)" width="4.0" xlink:href="#shape4"/>
    </g>
    <g id="shape4" transform="matrix(1.0, 0.0, 0.0, 1.0, 0.5, 0.5)">
      <path d="M0.8 1.55 Q0.2 0.8 1.15 0.5 2.3 1.0 1.25 1.65 1.0 1.8 0.8 1.55" fill="#ffcc4c" fill-rule="evenodd" stroke="none"/>
      <path d="M2.55 2.55 L2.3 2.75 1.5 3.0 Q0.9 3.0 0.45 2.55 0.0 2.1 0.0 1.5 0.0 0.9 0.45 0.45 0.9 0.0 1.5 0.0 L2.3 0.25 2.55 0.45 Q3.0 0.9 3.0 1.5 3.0 2.1 2.55 2.55 M0.8 1.55 Q1.0 1.8 1.25 1.65 2.3 1.0 1.15 0.5 0.2 0.8 0.8 1.55" fill="#cca33d" fill-rule="evenodd" stroke="none"/>
      <path d="M2.55 2.55 L2.3 2.75 1.5 3.0 Q0.9 3.0 0.45 2.55 0.0 2.1 0.0 1.5 0.0 0.9 0.45 0.45 0.9 0.0 1.5 0.0 L2.3 0.25 2.55 0.45 Q3.0 0.9 3.0 1.5 3.0 2.1 2.55 2.55 Z" fill="none" stroke="#997a2e" stroke-linecap="round" stroke-linejoin="round" stroke-width="1.0"/>
    </g>
  </defs>
</svg>
